icons/svg/layout-side-by-side-vertical_24.svg

<svg width="24" height="24" viewBox="0 0 24 24" fill="none" xmlns="http://www.w3.org/2000/svg">
<path fill-rule="evenodd" clip-rule="evenodd" d="M16 4H21.5C22.3284 4 23 4.67157 23 5.5V11.5H16V4ZM15 4H2.5C1.67157 4 1 4.67157 1 5.5V18.5C1 19.3284 1.67157 20 2.5 20H15V4ZM16 20H21.5C22.3284 20 23 19.3284 23 18.5V12.5H16V20ZM0 5.5C0 4.11929 1.11929 3 2.5 3H21.5C22.8807 3 24 4.11929 24 5.5V18.5C24 19.8807 22.8807 21 21.5 21H2.5C1.11929 21 0 19.8807 0 18.5V5.5Z" fill="#121212"/>
</svg>

<?xml version="1.0" encoding="utf-8"?>
<!-- Generator: Adobe Illustrator 25.0.0, SVG Export Plug-In . SVG Version: 6.00 Build 0)  -->
<svg version="1.1" id="Layer_1" xmlns="http://www.w3.org/2000/svg" xmlns:xlink="http://www.w3.org/1999/xlink" x="0px" y="0px"
	 viewBox="0 0 24 24" style="enable-background:new 0 0 24 24;" xml:space="preserve">
<style type="text/css">
	.st0{fill-rule:evenodd;clip-rule:evenodd;fill:#121212;}
</style>
<path class="st0" d="M16,4h5.5C22.3,4,23,4.7,23,5.5v6h-7V4z M15,4H2.5C1.7,4,1,4.7,1,5.5v13C1,19.3,1.7,20,2.5,20H15V4z M16,20h5.5
	c0.8,0,1.5-0.7,1.5-1.5v-6h-7V20z M0,5.5C0,4.1,1.1,3,2.5,3h19C22.9,3,24,4.1,24,5.5v13c0,1.4-1.1,2.5-2.5,2.5h-19
	C1.1,21,0,19.9,0,18.5V5.5z"/>
</svg>
